app/images/social/bandcamp.svg

<?xml version="1.0" encoding="UTF-8" standalone="no"?>
<svg width="103px" height="18px" viewBox="0 0 103 18" version="1.1" xmlns="http://www.w3.org/2000/svg" xmlns:xlink="http://www.w3.org/1999/xlink" xmlns:sketch="http://www.bohemiancoding.com/sketch/ns">
    <!-- Generator: Sketch Beta 3.3 (11970) - http://www.bohemiancoding.com/sketch -->
    <title>bandcamp</title>
    <desc>Created with Sketch Beta.</desc>
    <defs>
        <path id="path-1" d="M0.00882857143,0.0335798319 L102.931726,0.0335798319 L102.931726,17.9909244 L0.00882857143,17.9909244"></path>
    </defs>
    <g id="Art" stroke="none" stroke-width="1" fill="none" fill-rule="evenodd" sketch:type="MSPage">
        <g id="Artboard-2" sketch:type="MSArtboardGroup" transform="translate(-267.000000, -723.000000)">
            <g id="bandcamp" sketch:type="MSLayerGroup" transform="translate(267.000000, 723.000000)">
                <path d="M26.7183471,5.07494118 C24.3208014,5.07494118 24.0565329,7.73364706 24.0565329,9.38329412 C24.0565329,12.0808739 25.6990886,12.7989076 26.7560157,12.7989076 C28.5683743,12.7989076 29.4181243,11.1103866 29.4181243,8.87884034 C29.4181243,7.57860504 29.2858429,5.07494118 26.7183471,5.07494118 L26.7183471,5.07494118 Z M22.4707743,13.9826723 L22.4707743,0.0487058824 L24.1320171,0.0487058824 L24.1320171,5.11381513 L24.1698329,5.11381513 C24.8871543,4.04652101 25.8688914,3.56127731 27.0204314,3.54191597 C29.6445771,3.54191597 31.1360171,5.7542521 31.1360171,8.60702521 C31.1360171,11.0327899 30.15428,14.2736975 26.7938314,14.2736975 C25.1137543,14.2736975 24.4152671,13.2841513 24.0753671,12.7211597 L24.0376986,12.7211597 L24.0376986,13.9826723 L22.4707743,13.9826723 L22.4707743,13.9826723 Z" id="Fill-1" fill="#FFFFFF" sketch:type="MSShapeGroup"></path>
                <path d="M38.1778329,8.80109244 C37.9135643,9.01452101 37.49818,9.16971429 35.4405343,9.44152941 C34.6286,9.558 33.3260914,9.81030252 33.3260914,11.0910252 C33.3260914,12.1971933 33.8734629,12.8571429 35.1194686,12.8571429 C36.6675586,12.8571429 38.1778329,11.8285714 38.1778329,10.4701008 L38.1778329,8.80109244 L38.1778329,8.80109244 Z M32.09892,6.91865546 C32.1744043,4.4927395 33.7414757,3.54191597 36.17669,3.54191597 C36.9696429,3.54191597 39.8390757,3.77470588 39.8390757,6.37532773 L39.8390757,12.2165546 C39.8390757,12.643563 40.0468414,12.8182689 40.3867414,12.8182689 C40.5375629,12.8182689 40.7451814,12.779395 40.9341129,12.740521 L40.9341129,13.9826723 C40.6508629,14.0602689 40.4054286,14.1767395 40.0280071,14.1767395 C38.5552543,14.1767395 38.3289486,13.4004706 38.2721514,12.6243529 C37.6304614,13.3422353 36.6297429,14.2736975 34.7042314,14.2736975 C32.8918729,14.2736975 31.6081986,13.090084 31.6081986,11.3433277 C31.6081986,10.4893109 31.8534857,8.51006723 34.6097657,8.16065546 L37.3470643,7.8112437 C37.7437614,7.77252101 38.2155014,7.61732773 38.2155014,6.60811765 C38.2155014,5.54067227 37.4603643,4.95847059 35.8935871,4.95847059 C34.0057443,4.95847059 33.7414757,6.14238655 33.6281757,6.91865546 L32.09892,6.91865546 L32.09892,6.91865546 Z" id="Fill-2" fill="#FFFFFF" sketch:type="MSShapeGroup"></path>
                <path d="M49.7504714,13.9826723 L48.0890814,13.9826723 L48.0890814,7.73364706 C48.0890814,5.96768067 47.59836,5.07494118 45.9747857,5.07494118 C45.0308643,5.07494118 43.3694743,5.69601681 43.3694743,8.45183193 L43.3694743,13.9826723 L41.7082314,13.9826723 L41.7082314,3.83309244 L43.2751557,3.83309244 L43.2751557,5.2690084 L43.3128243,5.2690084 C43.6715586,4.72568067 44.5966457,3.54191597 46.2957043,3.54191597 C47.8248129,3.54191597 49.7504714,4.18220168 49.7504714,7.07384874 L49.7504714,13.9826723" id="Fill-3" fill="#FFFFFF" sketch:type="MSShapeGroup"></path>
                <path d="M55.0743943,12.7989076 C56.1314686,12.7989076 57.7738771,12.0808739 57.7738771,9.38329412 C57.7738771,7.73364706 57.5096086,5.07494118 55.1120629,5.07494118 C52.5445671,5.07494118 52.4124329,7.57860504 52.4124329,8.87884034 C52.4124329,11.1103866 53.2620357,12.7989076 55.0743943,12.7989076 L55.0743943,12.7989076 Z M59.4541014,13.9826723 L57.8873243,13.9826723 L57.8873243,12.585479 L57.8493614,12.585479 C57.1321871,13.9633109 55.9994814,14.2736975 55.0365786,14.2736975 C51.67613,14.2736975 50.69454,11.0327899 50.69454,8.60702521 C50.69454,5.7542521 52.18598,3.54191597 54.8101257,3.54191597 C56.6033557,3.54191597 57.35864,4.68680672 57.7550429,5.2690084 L57.7928586,5.2690084 L57.7928586,0.0487058824 L59.4541014,0.0487058824 L59.4541014,13.9826723 L59.4541014,13.9826723 Z" id="Fill-4" fill="#FFFFFF" sketch:type="MSShapeGroup"></path>
                <path d="M67.7419229,7.24855462 C67.5343043,5.89008403 66.7978543,5.07494118 65.40088,5.07494118 C63.3430871,5.07494118 62.6825629,7.09336134 62.6825629,8.89805042 C62.6825629,10.6446555 63.0978,12.7989076 65.3820457,12.7989076 C66.4959171,12.7989076 67.45882,11.945042 67.7419229,10.3923529 L69.3465157,10.3923529 C69.1765657,12.0031261 68.2139571,14.2736975 65.3252486,14.2736975 C62.5502814,14.2736975 60.9078729,12.1195966 60.9078729,9.18922689 C60.9078729,6.04542857 62.3804786,3.54191597 65.6463143,3.54191597 C68.2326443,3.54191597 69.2143814,5.48243697 69.3465157,7.24855462 L67.7419229,7.24855462" id="Fill-5" fill="#FFFFFF" sketch:type="MSShapeGroup"></path>
                <path d="M76.0862471,8.80109244 C75.8219786,9.01452101 75.4067414,9.16971429 73.3489486,9.44152941 C72.5371614,9.558 71.2346529,9.81030252 71.2346529,11.0910252 C71.2346529,12.1971933 71.7818771,12.8571429 73.02803,12.8571429 C74.57612,12.8571429 76.0862471,11.8285714 76.0862471,10.4701008 L76.0862471,8.80109244 L76.0862471,8.80109244 Z M70.0076286,6.91865546 C70.0829657,4.4927395 71.64989,3.54191597 74.0852514,3.54191597 C74.8780571,3.54191597 77.74749,3.77470588 77.74749,6.37532773 L77.74749,12.2165546 C77.74749,12.643563 77.9554029,12.8182689 78.2951557,12.8182689 C78.4461243,12.8182689 78.65389,12.779395 78.8426743,12.740521 L78.8426743,13.9826723 C78.5594243,14.0602689 78.31399,14.1767395 77.9365686,14.1767395 C76.4639629,14.1767395 76.2373629,13.4004706 76.18086,12.6243529 C75.5388757,13.3422353 74.5383043,14.2736975 72.6127929,14.2736975 C70.8002871,14.2736975 69.51676,13.090084 69.51676,11.3433277 C69.51676,10.4893109 69.7621943,8.51006723 72.5183271,8.16065546 L75.2557729,7.8112437 C75.6521757,7.77252101 76.1240629,7.61732773 76.1240629,6.60811765 C76.1240629,5.54067227 75.3689257,4.95847059 73.8020014,4.95847059 C71.9143057,4.95847059 71.64989,6.14238655 71.53659,6.91865546 L70.0076286,6.91865546 L70.0076286,6.91865546 Z" id="Fill-6" fill="#FFFFFF" sketch:type="MSShapeGroup"></path>
                <g id="Group-11">
                    <mask id="mask-2" sketch:name="Clip 8" fill="white">
                        <use xlink:href="#path-1"></use>
                    </mask>
                    <g id="Clip-8"></g>
                    <path d="M79.6167929,3.83309244 L81.1837171,3.83309244 L81.1837171,5.2690084 L81.2215329,5.2690084 C81.58012,4.72568067 82.4297229,3.54191597 84.2042657,3.54191597 C85.9788086,3.54191597 86.5451614,4.64793277 86.8284114,5.19141176 C87.65918,4.24058824 88.3198514,3.54191597 89.84896,3.54191597 C90.9061814,3.54191597 92.9073243,4.10460504 92.9073243,6.95752941 L92.9073243,13.9826723 L91.2460814,13.9826723 L91.2460814,7.4232605 C91.2460814,6.02591597 90.83055,5.07494118 89.4147414,5.07494118 C88.0177671,5.07494118 87.09268,6.43341176 87.09268,7.79203361 L87.09268,13.9826723 L85.4314371,13.9826723 L85.4314371,6.95752941 C85.4314371,6.10351261 85.1103714,5.07494118 83.8834943,5.07494118 C82.9395729,5.07494118 81.2780357,5.69601681 81.2780357,8.45183193 L81.2780357,13.9826723 L79.6167929,13.9826723 L79.6167929,3.83309244" id="Fill-7" fill="#FFFFFF" sketch:type="MSShapeGroup" mask="url(#mask-2)"></path>
                    <path d="M98.5520186,12.7989076 C100.36423,12.7989076 101.21398,11.1103866 101.21398,8.87884034 C101.21398,7.57860504 101.081699,5.07494118 98.5142029,5.07494118 C96.1166571,5.07494118 95.8522414,7.73364706 95.8522414,9.38329412 C95.8522414,12.0808739 97.4947971,12.7989076 98.5520186,12.7989076 L98.5520186,12.7989076 Z M94.26663,3.83309244 L95.8334071,3.83309244 L95.8334071,5.2690084 L95.8712229,5.2690084 C96.2677729,4.68680672 97.0227629,3.54191597 98.8162871,3.54191597 C101.440433,3.54191597 102.931873,5.7542521 102.931873,8.60702521 C102.931873,11.0327899 101.950136,14.2736975 98.5896871,14.2736975 C97.2681971,14.2736975 96.3999071,13.6334118 95.9656886,12.9153782 L95.9278729,12.9153782 L95.9278729,18 L94.26663,18 L94.26663,3.83309244 L94.26663,3.83309244 Z" id="Fill-9" fill="#FFFFFF" sketch:type="MSShapeGroup" mask="url(#mask-2)"></path>
                    <path d="M0.000147142857,13.9826723 L6.27196429,0.0335798319 L22.3958786,0.0335798319 L16.1242086,13.9826723 L0.000147142857,13.9826723 Z" id="Fill-10" fill="#FFFFFF" sketch:type="MSShapeGroup" mask="url(#mask-2)"></path>
                </g>
            </g>
        </g>
    </g>
</svg>

<svg width="103" height="18" viewBox="0 0 103 18" xmlns="http://www.w3.org/2000/svg" xmlns:xlink="http://www.w3.org/1999/xlink"><defs><path id="a" d="M.01.034H102.93V17.99H.01"/></defs><g fill="none" fill-rule="evenodd"><path d="M26.718 5.075c-2.397 0-2.66 2.66-2.66 4.308 0 2.698 1.64 3.416 2.698 3.416 1.812 0 2.662-1.69 2.662-3.92 0-1.3-.132-3.805-2.7-3.805zm-4.247 8.908V.05h1.662v5.064h.038c.717-1.067 1.7-1.553 2.85-1.572 2.625 0 4.116 2.212 4.116 5.065 0 2.426-.982 5.667-4.342 5.667-1.68 0-2.38-.99-2.72-1.553h-.036v1.263H22.47zM38.178 8.8c-.264.215-.68.37-2.737.642-.81.116-2.114.368-2.114 1.65 0 1.105.547 1.765 1.793 1.765 1.548 0 3.058-1.028 3.058-2.387V8.8zm-6.08-1.88c.076-2.427 1.643-3.378 4.08-3.378.792 0 3.66.233 3.66 2.833v5.842c0 .427.21.6.55.6.15 0 .357-.038.546-.076v1.243c-.283.077-.53.194-.906.194-1.473 0-1.7-.777-1.756-1.553-.642.718-1.642 1.65-3.568 1.65-1.812 0-3.096-1.184-3.096-2.93 0-.855.245-2.834 3.002-3.183l2.737-.35c.397-.037.87-.193.87-1.202 0-1.067-.757-1.65-2.323-1.65-1.888 0-2.153 1.184-2.266 1.96h-1.53zM49.75 13.983h-1.66v-6.25c0-1.765-.492-2.658-2.115-2.658-.944 0-2.606.62-2.606 3.377v5.53h-1.662V3.833h1.567V5.27h.038c.36-.544 1.284-1.728 2.983-1.728 1.53 0 3.454.64 3.454 3.532v6.91M55.074 12.8c1.057 0 2.7-.72 2.7-3.417 0-1.65-.264-4.308-2.662-4.308-2.567 0-2.7 2.504-2.7 3.804 0 2.23.85 3.92 2.662 3.92zm4.38 1.183h-1.567v-1.398h-.038c-.718 1.378-1.85 1.69-2.813 1.69-3.36 0-4.342-3.242-4.342-5.668 0-2.853 1.49-5.065 4.115-5.065 1.793 0 2.55 1.145 2.945 1.727h.038V.05h1.66v13.933zM67.742 7.25c-.208-1.36-.944-2.175-2.34-2.175-2.06 0-2.72 2.018-2.72 3.823 0 1.747.416 3.9 2.7 3.9 1.114 0 2.077-.853 2.36-2.406h1.605c-.17 1.61-1.133 3.882-4.022 3.882-2.775 0-4.417-2.154-4.417-5.085 0-3.145 1.472-5.648 4.738-5.648 2.587 0 3.568 1.94 3.7 3.707h-1.604M76.086 8.8c-.264.215-.68.37-2.737.642-.813.116-2.115.368-2.115 1.65 0 1.105.547 1.765 1.793 1.765 1.548 0 3.058-1.028 3.058-2.387V8.8zm-6.078-1.88c.075-2.427 1.642-3.378 4.077-3.378.793 0 3.662.233 3.662 2.833v5.842c0 .427.208.6.548.6.15 0 .36-.038.548-.076v1.243c-.284.077-.53.194-.906.194-1.473 0-1.7-.777-1.756-1.553-.64.718-1.642 1.65-3.567 1.65-1.813 0-3.096-1.184-3.096-2.93 0-.855.245-2.834 3-3.183l2.74-.35c.395-.037.867-.193.867-1.202 0-1.067-.755-1.65-2.322-1.65-1.888 0-2.152 1.184-2.265 1.96h-1.53z" fill="#FFF"/><g><mask id="b" fill="#fff"><use xlink:href="#a"/></mask><path d="M79.617 3.833h1.567V5.27h.038c.358-.544 1.208-1.728 2.982-1.728 1.775 0 2.34 1.106 2.624 1.65.83-.95 1.492-1.65 3.02-1.65 1.058 0 3.06.563 3.06 3.416v7.025h-1.662v-6.56c0-1.397-.415-2.348-1.83-2.348-1.398 0-2.323 1.358-2.323 2.717v6.19H85.43V6.96c0-.854-.32-1.883-1.547-1.883-.943 0-2.605.62-2.605 3.377v5.53h-1.66V3.833M98.552 12.8c1.812 0 2.662-1.69 2.662-3.92 0-1.3-.132-3.805-2.7-3.805-2.397 0-2.662 2.66-2.662 4.308 0 2.698 1.643 3.416 2.7 3.416zm-4.285-8.967h1.566V5.27h.038c.398-.583 1.153-1.728 2.946-1.728 2.624 0 4.116 2.212 4.116 5.065 0 2.426-.982 5.667-4.342 5.667-1.322 0-2.19-.64-2.624-1.36h-.038V18h-1.66V3.833zM0 13.983L6.272.033h16.124l-6.272 13.95H0z" fill="#FFF" mask="url(#b)"/></g></g></svg>
